!!!COM: Palestrina, Giovanni Perluigi da
!!!OPR: Primi toni
!!!OTL: Kyrie
**kern	**kern	**kern	**kern
*Ibass	*Itenor	*Icalto	*Icant
!Bassus	!Tenor	!Altus	!Cantus
*clefF4	*clefGv2	*clefG2	*clefG2
*k[b-]	*k[b-]	*k[b-]	*k[b-]
*G:dor	*G:dor	*G:dor	*G:dor
*M4/2	*M4/2	*M4/2	*M4/2
=1	=1	=1	=1
0r	0r	1g	1r
.	.	2g	1dd
.	.	2f	.
=2	=2	=2	=2
0r	0r	2g	2dd
.	.	2b-	2dd
.	.	4a	2cc
.	.	4g	.
.	.	4f	[2dd
.	.	4e	.
=3	=3	=3	=3
1G	0r	2d	4dd]
.	.	.	4cc
.	.	2g	4b-
.	.	.	4a
2G	.	2b-	2g
2F	.	2a	2a
=4	=4	=4	=4
2G	0r	4g	2b-
.	.	4f	.
2B-	.	4e	1dd
.	.	4d	.
1A	.	1e	.
.	.	.	2cc#
=5	=5	=5	=5
1D	1d	4f	1dd
.	.	4e	.
.	.	4d	.
.	.	4c	.
2.G	2d	2.B-	2r
.	2d	.	2g
4F	.	4A	.
=6	=6	=6	=6
2E-	2c	2G	2g
2D	2.d	2A	2f
1G	.	2B-	2g
.	4c	.	.
.	4B-	2d	[2b-
.	4A	.	.
=7	=7	=7	=7
0r	2G	2d	2b-]
.	2A	2c	4a
.	.	.	4g
.	4B-	2d	2.f
.	4c	.	.
.	[2d	2f	.
.	.	.	4g
=8	=8	=8	=8
1A	2d]	1e	1a
.	2c#	.	.
2F#	1d	1d	2r
2G	.	.	2dd
=9	=9	=9	=9
4D	1f	2r	2dd
4E	.	.	.
4F	.	2a	2dd
4G	.	.	.
2A	2e	2a	2cc
[2B-	2d	2f	[2dd
=10	=10	=10	=10
4B-]	4G	1g	4dd]
4A	4A	.	4cc
1G	4B-	.	4b-
.	4c	.	4a
.	1d	2b-	2g
2F	.	[2a	2a
=11	=11	=11	=11
1E-	1G	4a]	2b-
.	.	4g	.
.	.	1g	2cc
1D	1A	.	1dd
.	.	2f#	.
=12	=12	=12	=12
0G	0G	0g	0b
=13	=13	=13	=13
1G	1g	0r	0r
2B-	2g	.	.
2c	2g	.	.
=14	=14	=14	=14
2A	2.f	0r	0r
2B-	.	.	.
.	4d	.	.
2c	2e	.	.
[2d	2f	.	.
=15	=15	=15	=15
2d]	1e-	1r	1r
2c	.	.	.
4B-	1d	2r	1dd
4A	.	.	.
4B-	.	2d	.
4c	.	.	.
=16	=16	=16	=16
2d	0r	2f	2dd
2G	.	2g	2dd
1A	.	2e	2.cc
.	.	2f	.
.	.	.	4a
=17	=17	=17	=17
0r	1r	2g	2b-
.	.	2a	2cc
.	2r	[1b-	[1dd
.	2G	.	.
=18	=18	=18	=18
0r	2B-	2b-]	2dd]
.	2c	4a	4cc
.	.	4g	4b-
.	2A	2a	2cc
.	2B-	[2g	2b-
=19	=19	=19	=19
1r	2c	2g]	1a
.	2d	2f#	.
1G	2.B-	[1g	2g
.	.	.	2b-
.	4c	.	.
=20	=20	=20	=20
2G	2d	1g]	2b-
2G	2.e-	.	2b-
2.F	.	1r	2.a
.	4d	.	.
.	[2d	.	.
4D	.	.	4f
=21	=21	=21	=21
2E	4d]	1r	2g
.	4c	.	.
2F	2c	.	2a
1G	2B-	2r	1g
.	[2d	2g	.
=22	=22	=22	=22
1E-	2d]	2g	1r
.	2c	2g	.
1D	1d	2.f	2r
.	.	.	2a
.	.	4d	.
=23	=23	=23	=23
0r	0r	2e	2cc
.	.	2f	2dd
.	.	2g	2b-
.	.	2e-	2cc
=24	=24	=24	=24
1.G	1g	2.d	2dd
.	.	.	2g
.	.	4c	.
.	2g	2d	2b-
2C	2g	2e-	2cc
=25	=25	=25	=25
1D	2.f	2d	2.a
.	.	1a	.
.	4d	.	4b-
[1A	2e	.	2cc
.	2f	2a	[2dd
=26	=26	=26	=26
1A]	2.e	1a	2dd]
.	.	.	2cc
.	4f#	.	.
[1G	1g	2d	2b-
.	.	[2b-	2g
=27	=27	=27	=27
0G]	[0d	4b-]	0b-
.	.	4a	.
.	.	4g	.
.	.	4f#	.
.	.	1g	.
=28	=28	=28	=28
0D	0d]	0f#	0a
=29	=29	=29	=29
0r	0r	1r	1dd
.	.	1g	2dd
.	.	.	2ee-
=30	=30	=30	=30
0r	0r	2g	1dd
.	.	2b-	.
.	.	2a	2cc
.	.	2g	2b-
=31	=31	=31	=31
0r	0r	2.f	2a
.	.	.	2.ff
.	.	4g	.
.	.	2a	.
.	.	.	4ee
.	.	2b-	2dd
=32	=32	=32	=32
0r	1r	2a	2cc
.	.	1g	2b-
.	1d	.	1a
.	.	2f	.
=33	=33	=33	=33
1G	2d	2.b-	0r
.	2e-	.	.
.	.	4a	.
2G	1d	2g	.
2B-	.	[2f	.
=34	=34	=34	=34
2A	2c	2f]	0r
2G	2B-	2e	.
1F	2A	2f	.
.	[2f	2a	.
=35	=35	=35	=35
2.D	4f]	2a	0r
.	4e	.	.
.	2d	2b-	.
4E	.	.	.
2F	2c	2a	.
2G	2B-	2g	.
=36	=36	=36	=36
0D	1A	2.f	2r
.	.	.	2dd
.	.	4g	.
.	1d	2a	2dd
.	.	2f	2ff
=37	=37	=37	=37
0r	2c	1g	2ee
.	2B-	.	2dd
.	2.A	1a	2.cc
.	4B-	.	4dd
=38	=38	=38	=38
0r	2c	2g	2ee
.	2d	2f	2.ff
.	1B-	1d	.
.	.	.	4ee
.	.	.	[2dd
=39	=39	=39	=39
1r	1A	1e	2dd]
.	.	.	1cc
1G	1d	1g	.
.	.	.	4b-
.	.	.	4a
=40	=40	=40	=40
2G	2d	2g	1b-
2D	2d	2.f	.
2F	2c	.	2a
.	.	4e-	.
2G	2B-	[2d	2g
=41	=41	=41	=41
2D	2.A	2d]	2.f
2.F	.	2c	.
.	4B-	.	4g
.	2c	2.f	2a
4E-	.	.	.
4D	[2d	.	[2b-
4C	.	4e-	.
=42	=42	=42	=42
2.BB-	4d]	0d	4b-]
.	4c	.	4a
.	2B-	.	1g
4C	.	.	.
1D	1A	.	.
.	.	.	2f#
=43	=43	=43	=43
[0G	[0G	[0d	[0g
=44	=44	=44	=44
0G]	0G]	0d]	0g]
==	==	==	==
*-	*-	*-	*-
!!!CDT: 1525/^1526/-1594/2/2
!!!OCY: Italia
!!!AGN: Mass (Free)
!!!AST: renaissance, vocal
!!!ASW: Popular Song
!!!PWK: Masses, Book 4
!!!RNB: Cadence finals: D
!!!YOR: Le Opere Complete, v. 10, p. 19
!!!YOO: Rome, Italy: Fratelli Scalera
!!!END: 1992//
!!!EED: John Miller
!!!YEC: Copyright 2000, John Miller
!!!YEN: United States of America
!!!YEM: Rights to all derivative electronic formats reserved.
!!!YEM: Refer to licensing agreement for further details.
!!!YEM: This file must be accompanied by the licensing agreement.
!!!YEM: A copy of the licensing agreement may be found at http://www.music-cog.ohio-state.edu/HumdrumDatabases/Palestrina/license.txt
!!!EMD: converted to Humdrum by Bret Aarden
